X: 39561
T: Teampall An Ghleanntáin
R: reel
M: 4/4
K: Dmixolydian
|gfdc AB ~B2|dc ~c2 AB ~B2|gfdc AB ~B2|~d2 cA AG G2|
gfdc AB ~B2|dc ~c2 AB ~B2|dc ~c2 AB ~B2|~d2 cA AGdG||
G/A/Bd =f3 e|dg ~g2 abag|gfdc ABcA|~d2 cA AGdG|
G/A/Bd =f3 e|dg ~g2 abag|gfdc ABcA|B/c/dcA AG G2||

